storage/app/icons/phosphoricons/bold/shuffle-simple-bold.svg

<svg xmlns="http://www.w3.org/2000/svg" fill="currentColor" viewBox="0 0 256 256"><path d="M220 48v40a12 12 0 0 1-24 0V77l-31.23 31.2a12 12 0 0 1-17-17L179 60h-11a12 12 0 0 1 0-24h40a12 12 0 0 1 12 12m-12 108a12 12 0 0 0-12 12v11L56.49 39.51a12 12 0 0 0-17 17L179 196h-11a12 12 0 0 0 0 24h40a12 12 0 0 0 12-12v-40a12 12 0 0 0-12-12m-116.77-8.2-51.72 51.71a12 12 0 0 0 17 17l51.71-51.72a12 12 0 0 0-17-17Z"/></svg>

<svg xmlns="http://www.w3.org/2000/svg" viewBox="0 0 256 256" fill="currentColor"><path d="M220,48V88a12,12,0,0,1-24,0V77L164.77,108.2a12,12,0,0,1-17-17L179,60H168a12,12,0,0,1,0-24h40A12,12,0,0,1,220,48ZM208,156a12,12,0,0,0-12,12v11L56.49,39.51a12,12,0,0,0-17,17L179,196H168a12,12,0,0,0,0,24h40a12,12,0,0,0,12-12V168A12,12,0,0,0,208,156ZM91.23,147.8,39.51,199.51a12,12,0,0,0,17,17l51.71-51.72a12,12,0,0,0-17-17Z"/></svg>
